X:2002 
T:The Mona's Isle Quickstep 
C:Henry Kitchin, 1802
O:Isle of Man
Z:Clague collection
B:Kiaull Vannin #2.  See also http://thesession.org/tunes/13100
M: 6/8
L: 1/8
K: G
D |B2G G2D |B2G G2D|GAB cde|BGD AFD|
B2G G2D|B2G G2D|GAB cde|cAF G2:|
G |B2B dBd|gfe dcB|A2A cAc|agf edc|
B2B dBd|gfe dcB|A2B cAF|G2B G2!fine!:|
G |e2c c2G|e2c c2G|cee cee|dec BAG|
e2c c2G|e2c c2G|ABc deB|d3 c2G|
e2c c2G|e2c c2G|cee cee|dec BAG|
e2c c2G|e2c c2G|ABc deB|d3 c2!D.C.! !fine!||
